unum/images-source/external-link.svg

<?xml version="1.0" encoding="UTF-8"?>
<svg width="18px" height="16px" viewBox="0 0 18 16" version="1.1" xmlns="http://www.w3.org/2000/svg" xmlns:xlink="http://www.w3.org/1999/xlink">
    <!-- Generator: Sketch 43.2 (39069) - http://www.bohemiancoding.com/sketch -->
    <title>external-link</title>
    <desc>Created with Sketch.</desc>
    <defs>
        <polygon id="path-1" points="2.01944845e-16 15.3735847 2.01944845e-16 3.44497608e-05 17.9359148 3.44497608e-05 17.9359148 15.3735847 0 15.3735847"></polygon>
    </defs>
    <g id="Pages" stroke="none" stroke-width="1" fill="none" fill-rule="evenodd">
        <g id="Web" transform="translate(-580.000000, -8260.000000)">
            <g id="Typography" transform="translate(377.000000, 7872.000000)">
                <g id="Headline" transform="translate(4.000000, 167.000000)">
                    <g id="download-btn" transform="translate(0.000000, 205.000000)">
                        <g id="external-link" transform="translate(199.000000, 16.000000)">
                            <mask id="mask-2" fill="white">
                                <use xlink:href="#path-1"></use>
                            </mask>
                            <g id="Clip-2"></g>
                            <path d="M17.9359148,0.640541627 L17.9359148,5.76511579 C17.9359148,5.93857033 17.8725273,6.08868517 17.7457522,6.21546029 C17.618977,6.34232153 17.4688622,6.40562297 17.2954077,6.40562297 C17.121867,6.40562297 16.9717522,6.34232153 16.844977,6.21546029 L15.0833885,4.45395789 L8.55757033,10.97969 C8.49091005,11.0464364 8.41408708,11.0798526 8.32744593,11.0798526 C8.24063254,11.0798526 8.16389569,11.0464364 8.09723541,10.97969 L6.95617321,9.83871388 C6.88942679,9.77196746 6.85609665,9.69523062 6.85609665,9.60850335 C6.85609665,9.52177608 6.88942679,9.44503923 6.95617321,9.37829282 L13.4819914,2.85256077 L11.7204029,1.09097225 C11.5936278,0.964197129 11.5302402,0.814082297 11.5302402,0.640541627 C11.5302402,0.467087081 11.5936278,0.316972249 11.7204029,0.190197129 C11.847178,0.0633358852 11.9972928,3.44497608e-05 12.1708335,3.44497608e-05 L17.2954077,3.44497608e-05 C17.4688622,3.44497608e-05 17.618977,0.0633358852 17.7457522,0.190197129 C17.8725273,0.316972249 17.9359148,0.467087081 17.9359148,0.640541627 M14.0925273,9.2882067 L14.0925273,12.4910871 C14.0925273,13.2850679 13.8106421,13.9640727 13.2467856,14.5279292 C12.6829292,15.0916995 12.0040105,15.3735847 11.2099435,15.3735847 L2.88257512,15.3735847 C2.08850813,15.3735847 1.40958947,15.0916995 0.845733014,14.5279292 C0.281962679,13.9640727 -8.61244019e-06,13.2850679 -8.61244019e-06,12.4910871 L-8.61244019e-06,4.16371866 C-8.61244019e-06,3.36965167 0.281962679,2.69073301 0.845733014,2.12687656 C1.40958947,1.5630201 2.08850813,1.28113493 2.88257512,1.28113493 L9.92884306,1.28113493 C10.0222019,1.28113493 10.0989388,1.31119234 10.1590536,1.37122105 C10.2190823,1.43124976 10.2491397,1.5079866 10.2491397,1.60143158 L10.2491397,2.24202488 C10.2491397,2.33538373 10.2190823,2.41212057 10.1590536,2.47223541 C10.0989388,2.53226411 10.0222019,2.56223541 9.92884306,2.56223541 L2.88257512,2.56223541 C2.44222105,2.56223541 2.06516842,2.71906794 1.75158947,3.03264689 C1.4379244,3.34631196 1.28117799,3.72327847 1.28117799,4.16371866 L1.28117799,12.4910871 C1.28117799,12.9314411 1.4379244,13.3084938 1.75158947,13.6220727 C2.06516842,13.9357378 2.44222105,14.0924842 2.88257512,14.0924842 L11.2099435,14.0924842 C11.6503837,14.0924842 12.0273502,13.9357378 12.3409292,13.6220727 C12.6545943,13.3084938 12.8114268,12.9314411 12.8114268,12.4910871 L12.8114268,9.2882067 C12.8114268,9.19484785 12.8413981,9.118111 12.9014268,9.05799617 C12.9615416,8.99796746 13.0382785,8.96791005 13.1316373,8.96791005 L13.7722306,8.96791005 C13.8656756,8.96791005 13.9423263,8.99796746 14.0024411,9.05799617 C14.0624699,9.118111 14.0925273,9.19484785 14.0925273,9.2882067" id="Fill-1" fill="#000000" mask="url(#mask-2)"></path>
                        </g>
                    </g>
                </g>
            </g>
        </g>
    </g>
</svg>

<svg width="18" height="16" viewBox="0 0 18 16" xmlns="http://www.w3.org/2000/svg" xmlns:xlink="http://www.w3.org/1999/xlink"><title>external-link</title><defs><path id="a" d="M0 15.374V0h17.936v15.374H0z"/></defs><g fill="none" fill-rule="evenodd"><mask id="b" fill="#fff"><use xlink:href="#a"/></mask><path d="M17.936.64v5.125a.616.616 0 0 1-.19.45.615.615 0 0 1-.45.19.615.615 0 0 1-.451-.19l-1.762-1.761-6.525 6.526a.316.316 0 0 1-.46 0L6.955 9.839a.316.316 0 0 1 0-.46l6.526-6.526L11.72 1.09a.616.616 0 0 1-.19-.45c0-.174.064-.324.19-.45a.615.615 0 0 1 .45-.19h5.125c.174 0 .324.063.45.19.128.127.19.277.19.45m-3.842 8.648v3.203c0 .794-.282 1.473-.846 2.037a2.777 2.777 0 0 1-2.037.846H2.883a2.777 2.777 0 0 1-2.037-.846A2.777 2.777 0 0 1 0 12.49V4.164C0 3.37.282 2.69.846 2.127a2.776 2.776 0 0 1 2.037-.846h7.046c.093 0 .17.03.23.09s.09.137.09.23v.641c0 .093-.03.17-.09.23a.312.312 0 0 1-.23.09H2.883c-.44 0-.818.157-1.131.47-.314.314-.47.691-.47 1.132v8.327c0 .44.156.817.47 1.131.313.314.69.47 1.13.47h8.328c.44 0 .817-.156 1.13-.47.315-.314.471-.69.471-1.13V9.287c0-.093.03-.17.09-.23s.137-.09.23-.09h.641c.094 0 .17.03.23.09s.09.137.09.23" fill="#19557f" mask="url(#b)"/></g></svg>
